svg/600/rounded/headphones-fill.svg

<svg xmlns="http://www.w3.org/2000/svg" width="48" height="48" viewBox="0 -960 960 960"><path d="M260.652-106.999h-75.565q-32.478 0-55.848-23.37-23.37-23.37-23.37-55.849V-480q0-77.826 29.348-145.87 29.348-68.043 80.109-118.804 50.761-50.761 118.804-80.392 68.044-29.63 145.87-29.63 77.826 0 145.87 29.63 68.043 29.631 118.804 80.392 50.761 50.761 80.392 118.804 29.63 68.044 29.63 145.87v293.782q0 32.479-23.652 55.849-23.653 23.37-56.131 23.37h-75q-33.228 0-56.506-23.278-23.277-23.277-23.277-55.941v-163.564q0-32.664 23.277-55.941 23.278-23.278 56.506-23.278h75V-480q0-123.096-85.909-209.004Q603.096-774.913 480-774.913q-123.096 0-209.004 85.909Q185.087-603.096 185.087-480v50.999h75.565q32.663 0 55.941 23.278 23.277 23.277 23.277 55.941v163.564q0 32.664-23.277 55.941-23.278 23.278-55.941 23.278Z"/></svg>

<svg xmlns="http://www.w3.org/2000/svg" width="48" height="48" viewBox="0 -960 960 960"><path d="M260.65-107h-75.56q-32.48 0-55.85-23.37-23.37-23.37-23.37-55.85V-480q0-77.83 29.35-145.87 29.34-68.04 80.11-118.8 50.76-50.77 118.8-80.4Q402.17-854.7 480-854.7t145.87 29.63q68.04 29.63 118.8 80.4 50.77 50.76 80.4 118.8Q854.7-557.83 854.7-480v293.78q0 32.48-23.66 55.85Q807.39-107 774.91-107h-75q-33.23 0-56.5-23.28-23.28-23.27-23.28-55.94v-163.56q0-32.67 23.28-55.94Q666.68-429 699.91-429h75v-51q0-123.1-85.91-209-85.9-85.91-209-85.91T271-689q-85.91 85.9-85.91 209v51h75.56q32.67 0 55.94 23.28 23.28 23.27 23.28 55.94v163.56q0 32.67-23.28 55.94Q293.32-107 260.65-107Z"/></svg>
